icons/modern/old-key.svg

<svg width="32" height="32" viewBox="0 0 32 32" fill="none" xmlns="http://www.w3.org/2000/svg">
<g filter="url(#filter0_i_18_23735)">
<path d="M6.11774 26.455L11.1646 21.4081L14.3758 24.6193C14.8573 25.1007 14.8801 25.874 14.4279 26.3831C14.1535 26.6921 13.7474 26.8504 13.3364 26.8086L12.2557 26.699C11.99 26.6721 11.7266 26.7689 11.5417 26.9615C11.3703 27.1401 11.2832 27.3834 11.3024 27.6302L11.3858 28.7019C11.4129 29.0503 11.2885 29.3935 11.0445 29.6437C10.5723 30.1278 9.79541 30.1326 9.31718 29.6544L6.11774 26.455Z" fill="url(#paint0_linear_18_23735)"/>
</g>
<g filter="url(#filter1_i_18_23735)">
<path d="M16.3972 12.1719L19.8035 15.5781L6.86599 28.5156C5.92538 29.4562 4.40034 29.4562 3.45973 28.5156C2.51912 27.575 2.51912 26.05 3.45973 25.1094L16.3972 12.1719Z" fill="url(#paint1_linear_18_23735)"/>
</g>
<g filter="url(#filter2_i_18_23735)">
<path fill-rule="evenodd" clip-rule="evenodd" d="M21.8816 18C26.2826 18 29.8503 14.4323 29.8503 10.0312C29.8503 5.63023 26.2826 2.0625 21.8816 2.0625C17.4806 2.0625 13.9128 5.63023 13.9128 10.0312C13.9128 14.4323 17.4806 18 21.8816 18ZM21.8816 14C24.0735 14 25.8503 12.2231 25.8503 10.0312C25.8503 7.83937 24.0735 6.0625 21.8816 6.0625C19.6897 6.0625 17.9128 7.83937 17.9128 10.0312C17.9128 12.2231 19.6897 14 21.8816 14Z" fill="url(#paint2_linear_18_23735)"/>
</g>
<rect x="13.28" y="14.2422" width="6.16507" height="1.52808" rx="0.76404" transform="rotate(45 13.28 14.2422)" fill="url(#paint3_linear_18_23735)"/>
<rect x="13.28" y="14.2422" width="6.16507" height="1.52808" rx="0.76404" transform="rotate(45 13.28 14.2422)" fill="url(#paint4_radial_18_23735)"/>
<rect x="13.28" y="14.2422" width="6.16507" height="1.52808" rx="0.76404" transform="rotate(45 13.28 14.2422)" fill="url(#paint5_linear_18_23735)"/>
<rect x="14.3605" y="13.1616" width="6.16507" height="1.52808" rx="0.76404" transform="rotate(45 14.3605 13.1616)" fill="url(#paint6_linear_18_23735)"/>
<rect x="14.3605" y="13.1616" width="6.16507" height="1.52808" rx="0.76404" transform="rotate(45 14.3605 13.1616)" fill="url(#paint7_radial_18_23735)"/>
<rect x="14.3605" y="13.1616" width="6.16507" height="1.52808" rx="0.76404" transform="rotate(45 14.3605 13.1616)" fill="url(#paint8_linear_18_23735)"/>
<g filter="url(#filter3_f_18_23735)">
<circle cx="22.309" cy="9.60393" r="6.30901" stroke="url(#paint9_linear_18_23735)" stroke-width="1.25"/>
<circle cx="22.309" cy="9.60393" r="6.30901" stroke="url(#paint10_linear_18_23735)" stroke-width="1.25"/>
</g>
<defs>
<filter id="filter0_i_18_23735" x="6.11774" y="21.2581" width="8.63483" height="8.75193" filterUnits="userSpaceOnUse" color-interpolation-filters="sRGB">
<feFlood flood-opacity="0" result="BackgroundImageFix"/>
<feBlend mode="normal" in="SourceGraphic" in2="BackgroundImageFix" result="shape"/>
<feColorMatrix in="SourceAlpha" type="matrix" values="0 0 0 0 0 0 0 0 0 0 0 0 0 0 0 0 0 0 127 0" result="hardAlpha"/>
<feOffset dy="-0.15"/>
<feGaussianBlur stdDeviation="0.25"/>
<feComposite in2="hardAlpha" operator="arithmetic" k2="-1" k3="1"/>
<feColorMatrix type="matrix" values="0 0 0 0 0.839216 0 0 0 0 0.592157 0 0 0 0 0.34902 0 0 0 1 0"/>
<feBlend mode="normal" in2="shape" result="effect1_innerShadow_18_23735"/>
</filter>
<filter id="filter1_i_18_23735" x="2.75427" y="11.6719" width="17.0492" height="17.5492" filterUnits="userSpaceOnUse" color-interpolation-filters="sRGB">
<feFlood flood-opacity="0" result="BackgroundImageFix"/>
<feBlend mode="normal" in="SourceGraphic" in2="BackgroundImageFix" result="shape"/>
<feColorMatrix in="SourceAlpha" type="matrix" values="0 0 0 0 0 0 0 0 0 0 0 0 0 0 0 0 0 0 127 0" result="hardAlpha"/>
<feOffset dy="-0.5"/>
<feGaussianBlur stdDeviation="0.75"/>
<feComposite in2="hardAlpha" operator="arithmetic" k2="-1" k3="1"/>
<feColorMatrix type="matrix" values="0 0 0 0 0.85098 0 0 0 0 0.541176 0 0 0 0 0.34902 0 0 0 1 0"/>
<feBlend mode="normal" in2="shape" result="effect1_innerShadow_18_23735"/>
</filter>
<filter id="filter2_i_18_23735" x="13.9128" y="1.6625" width="15.9375" height="16.3375" filterUnits="userSpaceOnUse" color-interpolation-filters="sRGB">
<feFlood flood-opacity="0" result="BackgroundImageFix"/>
<feBlend mode="normal" in="SourceGraphic" in2="BackgroundImageFix" result="shape"/>
<feColorMatrix in="SourceAlpha" type="matrix" values="0 0 0 0 0 0 0 0 0 0 0 0 0 0 0 0 0 0 127 0" result="hardAlpha"/>
<feOffset dy="-0.4"/>
<feGaussianBlur stdDeviation="0.5"/>
<feComposite in2="hardAlpha" operator="arithmetic" k2="-1" k3="1"/>
<feColorMatrix type="matrix" values="0 0 0 0 0.815686 0 0 0 0 0.505882 0 0 0 0 0.337255 0 0 0 1 0"/>
<feBlend mode="normal" in2="shape" result="effect1_innerShadow_18_23735"/>
</filter>
<filter id="filter3_f_18_23735" x="14.125" y="1.41992" width="16.368" height="16.368" filterUnits="userSpaceOnUse" color-interpolation-filters="sRGB">
<feFlood flood-opacity="0" result="BackgroundImageFix"/>
<feBlend mode="normal" in="SourceGraphic" in2="BackgroundImageFix" result="shape"/>
<feGaussianBlur stdDeviation="0.625" result="effect1_foregroundBlur_18_23735"/>
</filter>
<linearGradient id="paint0_linear_18_23735" x1="11.6316" y1="27.8751" x2="9.63159" y2="25.709" gradientUnits="userSpaceOnUse">
<stop stop-color="#F4B954"/>
<stop offset="0.907715" stop-color="#ECA84F"/>
</linearGradient>
<linearGradient id="paint1_linear_18_23735" x1="8.03784" y1="21.0313" x2="11.2789" y2="24.1875" gradientUnits="userSpaceOnUse">
<stop stop-color="#F7C250"/>
<stop offset="1" stop-color="#F8AB54"/>
</linearGradient>
<linearGradient id="paint2_linear_18_23735" x1="21.8816" y1="2.8125" x2="21.8816" y2="18" gradientUnits="userSpaceOnUse">
<stop stop-color="#F8CF4D"/>
<stop offset="1" stop-color="#ED9953"/>
</linearGradient>
<linearGradient id="paint3_linear_18_23735" x1="14.0866" y1="15.1073" x2="18.3292" y2="15.1515" gradientUnits="userSpaceOnUse">
<stop stop-color="#F6BF4E"/>
<stop offset="1" stop-color="#EA994D"/>
</linearGradient>
<radialGradient id="paint4_radial_18_23735" cx="0" cy="0" r="1" gradientUnits="userSpaceOnUse" gradientTransform="translate(16.7429 14.6259) rotate(92.756) scale(0.327152 1.89502)">
<stop stop-color="#FCBC66"/>
<stop offset="1" stop-color="#FCBC66" stop-opacity="0"/>
</radialGradient>
<linearGradient id="paint5_linear_18_23735" x1="16.683" y1="15.9802" x2="16.6783" y2="15.3219" gradientUnits="userSpaceOnUse">
<stop offset="0.186419" stop-color="#E29226"/>
<stop offset="1" stop-color="#EC9B4F" stop-opacity="0"/>
</linearGradient>
<linearGradient id="paint6_linear_18_23735" x1="15.1671" y1="14.0268" x2="19.4097" y2="14.071" gradientUnits="userSpaceOnUse">
<stop stop-color="#F6BF4E"/>
<stop offset="1" stop-color="#EA994D"/>
</linearGradient>
<radialGradient id="paint7_radial_18_23735" cx="0" cy="0" r="1" gradientUnits="userSpaceOnUse" gradientTransform="translate(17.8234 13.5453) rotate(92.756) scale(0.327152 1.89502)">
<stop stop-color="#FBB865"/>
<stop offset="1" stop-color="#FBB865" stop-opacity="0"/>
</radialGradient>
<linearGradient id="paint8_linear_18_23735" x1="17.7635" y1="14.8996" x2="17.7588" y2="14.2414" gradientUnits="userSpaceOnUse">
<stop offset="0.186419" stop-color="#E29226"/>
<stop offset="1" stop-color="#E29226" stop-opacity="0"/>
</linearGradient>
<linearGradient id="paint9_linear_18_23735" x1="27.32" y1="4.29815" x2="21.4679" y2="9.25853" gradientUnits="userSpaceOnUse">
<stop stop-color="#FFDD67"/>
<stop offset="1" stop-color="#FFDD67" stop-opacity="0"/>
</linearGradient>
<linearGradient id="paint10_linear_18_23735" x1="17.6316" y1="14.0001" x2="19.0066" y2="11.8126" gradientUnits="userSpaceOnUse">
<stop stop-color="#FEB765"/>
<stop offset="1" stop-color="#FEB765" stop-opacity="0"/>
</linearGradient>
</defs>
</svg>

<svg width="32" height="32" fill="none" xmlns="http://www.w3.org/2000/svg"><g filter="url(#a)"><path d="m6.118 26.455 5.047-5.047 3.21 3.211a1.286 1.286 0 0 1-1.039 2.19l-1.08-.11a.869.869 0 0 0-.954.931l.084 1.072a1.214 1.214 0 0 1-2.069.952l-3.2-3.199Z" fill="url(#b)"/></g><g filter="url(#c)"><path d="m16.397 12.172 3.407 3.406L6.865 28.516a2.409 2.409 0 0 1-3.406-3.407l12.937-12.937Z" fill="url(#d)"/></g><g filter="url(#e)"><path fill-rule="evenodd" clip-rule="evenodd" d="M21.882 18a7.969 7.969 0 1 0 0-15.937 7.969 7.969 0 0 0 0 15.937Zm0-4a3.969 3.969 0 1 0 0-7.937 3.969 3.969 0 0 0 0 7.937Z" fill="url(#f)"/></g><rect x="13.28" y="14.242" width="6.165" height="1.528" rx=".764" transform="rotate(45 13.28 14.242)" fill="url(#g)"/><rect x="13.28" y="14.242" width="6.165" height="1.528" rx=".764" transform="rotate(45 13.28 14.242)" fill="url(#h)"/><rect x="13.28" y="14.242" width="6.165" height="1.528" rx=".764" transform="rotate(45 13.28 14.242)" fill="url(#i)"/><rect x="14.361" y="13.162" width="6.165" height="1.528" rx=".764" transform="rotate(45 14.36 13.162)" fill="url(#j)"/><rect x="14.361" y="13.162" width="6.165" height="1.528" rx=".764" transform="rotate(45 14.36 13.162)" fill="url(#k)"/><rect x="14.361" y="13.162" width="6.165" height="1.528" rx=".764" transform="rotate(45 14.36 13.162)" fill="url(#l)"/><g filter="url(#m)" stroke-width="1.25"><circle cx="22.309" cy="9.604" r="6.309" stroke="url(#n)"/><circle cx="22.309" cy="9.604" r="6.309" stroke="url(#o)"/></g><defs><linearGradient id="b" x1="11.632" y1="27.875" x2="9.632" y2="25.709" gradientUnits="userSpaceOnUse"><stop stop-color="#F4B954"/><stop offset=".908" stop-color="#ECA84F"/></linearGradient><linearGradient id="d" x1="8.038" y1="21.031" x2="11.279" y2="24.188" gradientUnits="userSpaceOnUse"><stop stop-color="#F7C250"/><stop offset="1" stop-color="#F8AB54"/></linearGradient><linearGradient id="f" x1="21.882" y1="2.813" x2="21.882" y2="18" gradientUnits="userSpaceOnUse"><stop stop-color="#F8CF4D"/><stop offset="1" stop-color="#ED9953"/></linearGradient><linearGradient id="g" x1="14.087" y1="15.107" x2="18.329" y2="15.152" gradientUnits="userSpaceOnUse"><stop stop-color="#F6BF4E"/><stop offset="1" stop-color="#EA994D"/></linearGradient><linearGradient id="i" x1="16.683" y1="15.98" x2="16.678" y2="15.322" gradientUnits="userSpaceOnUse"><stop offset=".186" stop-color="#E29226"/><stop offset="1" stop-color="#EC9B4F" stop-opacity="0"/></linearGradient><linearGradient id="j" x1="15.167" y1="14.027" x2="19.41" y2="14.071" gradientUnits="userSpaceOnUse"><stop stop-color="#F6BF4E"/><stop offset="1" stop-color="#EA994D"/></linearGradient><linearGradient id="l" x1="17.764" y1="14.9" x2="17.759" y2="14.241" gradientUnits="userSpaceOnUse"><stop offset=".186" stop-color="#E29226"/><stop offset="1" stop-color="#E29226" stop-opacity="0"/></linearGradient><linearGradient id="n" x1="27.32" y1="4.298" x2="21.468" y2="9.259" gradientUnits="userSpaceOnUse"><stop stop-color="#FFDD67"/><stop offset="1" stop-color="#FFDD67" stop-opacity="0"/></linearGradient><linearGradient id="o" x1="17.632" y1="14" x2="19.007" y2="11.813" gradientUnits="userSpaceOnUse"><stop stop-color="#FEB765"/><stop offset="1" stop-color="#FEB765" stop-opacity="0"/></linearGradient><filter id="a" x="6.118" y="21.258" width="8.635" height="8.752" filterUnits="userSpaceOnUse" color-interpolation-filters="sRGB"><feFlood flood-opacity="0" result="BackgroundImageFix"/><feBlend in="SourceGraphic" in2="BackgroundImageFix" result="shape"/><feColorMatrix in="SourceAlpha" values="0 0 0 0 0 0 0 0 0 0 0 0 0 0 0 0 0 0 127 0" result="hardAlpha"/><feOffset dy="-.15"/><feGaussianBlur stdDeviation=".25"/><feComposite in2="hardAlpha" operator="arithmetic" k2="-1" k3="1"/><feColorMatrix values="0 0 0 0 0.839216 0 0 0 0 0.592157 0 0 0 0 0.34902 0 0 0 1 0"/><feBlend in2="shape" result="effect1_innerShadow_18_23735"/></filter><filter id="c" x="2.754" y="11.672" width="17.049" height="17.549" filterUnits="userSpaceOnUse" color-interpolation-filters="sRGB"><feFlood flood-opacity="0" result="BackgroundImageFix"/><feBlend in="SourceGraphic" in2="BackgroundImageFix" result="shape"/><feColorMatrix in="SourceAlpha" values="0 0 0 0 0 0 0 0 0 0 0 0 0 0 0 0 0 0 127 0" result="hardAlpha"/><feOffset dy="-.5"/><feGaussianBlur stdDeviation=".75"/><feComposite in2="hardAlpha" operator="arithmetic" k2="-1" k3="1"/><feColorMatrix values="0 0 0 0 0.85098 0 0 0 0 0.541176 0 0 0 0 0.34902 0 0 0 1 0"/><feBlend in2="shape" result="effect1_innerShadow_18_23735"/></filter><filter id="e" x="13.913" y="1.663" width="15.938" height="16.337" filterUnits="userSpaceOnUse" color-interpolation-filters="sRGB"><feFlood flood-opacity="0" result="BackgroundImageFix"/><feBlend in="SourceGraphic" in2="BackgroundImageFix" result="shape"/><feColorMatrix in="SourceAlpha" values="0 0 0 0 0 0 0 0 0 0 0 0 0 0 0 0 0 0 127 0" result="hardAlpha"/><feOffset dy="-.4"/><feGaussianBlur stdDeviation=".5"/><feComposite in2="hardAlpha" operator="arithmetic" k2="-1" k3="1"/><feColorMatrix values="0 0 0 0 0.815686 0 0 0 0 0.505882 0 0 0 0 0.337255 0 0 0 1 0"/><feBlend in2="shape" result="effect1_innerShadow_18_23735"/></filter><filter id="m" x="14.125" y="1.42" width="16.368" height="16.368" filterUnits="userSpaceOnUse" color-interpolation-filters="sRGB"><feFlood flood-opacity="0" result="BackgroundImageFix"/><feBlend in="SourceGraphic" in2="BackgroundImageFix" result="shape"/><feGaussianBlur stdDeviation=".625" result="effect1_foregroundBlur_18_23735"/></filter><radialGradient id="h" cx="0" cy="0" r="1" gradientUnits="userSpaceOnUse" gradientTransform="matrix(-.01573 .32677 -1.89283 -.09112 16.743 14.626)"><stop stop-color="#FCBC66"/><stop offset="1" stop-color="#FCBC66" stop-opacity="0"/></radialGradient><radialGradient id="k" cx="0" cy="0" r="1" gradientUnits="userSpaceOnUse" gradientTransform="matrix(-.01573 .32677 -1.89283 -.09112 17.823 13.545)"><stop stop-color="#FBB865"/><stop offset="1" stop-color="#FBB865" stop-opacity="0"/></radialGradient></defs></svg>
